X: 022
T: la belle dame
C: toon van mierlo
M: 6/4
L: 1/4
R: hanter dro
K: Dmin
||D c/B/ A>G A/G/F/E/|D c/B/ A G/A/ F E/F/|D c/B/ A>G A/G/F/E/|D c/B/ A G/A/ F2||
||F E/F/ G A G/F/ E|F E/F/ G F C2|F E/F/ G A G/F/ E|F E/F/ G c E2||
